src/actions/22/media-repeat-none.svg

<svg version="1.1" viewBox="0 0 22 22" xmlns="http://www.w3.org/2000/svg">
    <defs>
        <style id="current-color-scheme" type="text/css">
            .ColorScheme-Text {
              color:#363636;
            }
            .ColorScheme-NegativeText {
              color:#da4453;
            }
        </style>
    </defs>
    <path class="ColorScheme-Text" d="m16 5v2h-10c-1.662 0-3 1.338-3 3v1h1v-1c0-1.108 0.892-2 2-2h10v2l3-2.5zm-3 9h-7v-2l-3 2.5 3 2.5v-2h7z" fill="currentColor"/>
    <path class="ColorScheme-NegativeText" d="m14.834 12-0.83398 0.83398 1.666 1.666-1.666 1.666 0.83398 0.83398 1.666-1.666 1.666 1.666 0.83398-0.83398-1.666-1.666 1.666-1.666-0.83398-0.83398-1.666 1.666z" fill="currentColor"/>
</svg>

<svg xmlns="http://www.w3.org/2000/svg" viewBox="0 0 22 22">
    <path fill="currentColor" d="M16 5v2H6c-1.662 0-3 1.338-3 3v1h1v-1c0-1.108.892-2 2-2h10v2l3-2.5zm-3 9H6v-2l-3 2.5L6 17v-2h7z" style="color:#050505;opacity:.7"/>
    <path fill="currentColor" d="m14.834 12-.834.834 1.666 1.666L14 16.166l.834.834 1.666-1.666L18.166 17l.834-.834-1.666-1.666L19 12.834 18.166 12 16.5 13.666z" style="color:#d98c8c"/>
</svg>
